components/Company/logos/logo-folio.svg

<svg height="140" viewBox="0 0 400 140" width="400" xmlns="http://www.w3.org/2000/svg"><path d="m109.18125 25.453125c-1.4625 0-6.046875-.39375-4.725-6.075.196875-.84375 1.29375-5.315625 6.01875-5.259375 4.359375.028125 6.13125 2.86875 5.4 6.159375-.421875 1.9125-1.771875 5.146875-6.69375 5.175zm53.8875-1.96875c.365625 4.134375-3.459375 20.025-13.921875 17.325-.928125 11.446875-11.390625 25.81875-25.875 22.95-3.139295-.5556258-5.847353-2.5270085-7.340625-5.34375-3.15 3.15-6.8625 6.1875-10.209375 7.36875-6.75 2.390625-11.334375.140625-13.134375-3.65625-2.3594909 2.6109559-5.2971657 4.6336173-8.578125 5.90625-10.490625 3.7125-15.440625-3.6-13.471875-10.96875.421875-1.546875 1.40625-4.528125 2.7-8.38125-1.603125.759375-3.459375.984375-5.625.45-.9 11.41875-11.3625 25.790625-25.846875 22.921875-6.946875-1.35-10.828125-8.15625-7.959375-18.84375 1.0125-3.65625 2.53125-7.115625 4.584375-10.06875-3.515625.28125-8.971875.73125-14.90625 1.378125-4.640625 11.30625-9.5625 25.7625-14.203125 42.046875-.47594048 1.5824988-1.74849054 2.798455-3.35098978 3.201962-1.60249923.403507-3.29914677-.0648095-4.46776022-1.233212-1.1667998-1.1828354-1.60728296-2.9017941-1.153125-4.5 1.828125-6.35625 6.69375-22.78125 12.65625-38.165625l-3.65625.5625c-3.515625.5625-4.921875-2.109375-5.203125-3.7125-.28125-1.9125.646875-4.66875 3.740625-5.146875 2.896875-.45 5.90625-.84375 8.94375-1.2375 2.3690536-5.8487816 5.3181575-11.4454836 8.803125-16.70625 5.484375-7.846875 11.3625-11.1375 17.971875-10.125 8.803125 1.321875 8.94375 12.375 8.8875 13.275-.140625 2.334375-.7875 4.5-4.55625 4.725-2.53125.1125-3.346875-1.940625-3.965625-4.696875-1.35-5.7375-4.5-4.05-5.821875-3.2625-2.840625 1.74375-6.46875 7.228125-10.4625 15.58125 7.734375-.759375 13.66875-1.209375 14.146875-1.2375 1.6875-.1125 3.346875.73125 4.21875 2.19375 2.9932564-1.6646028 6.3625235-2.535965 9.7875-2.53125 3.459375 0 6.1875 1.490625 8.690625 3.825 4.21875 3.88125 10.96875 2.475 14.2875-4.359375 3.5238286-9.9883487 7.2369979-19.9088868 11.1375-29.75625.9316425-2.38775821 3.5240343-3.67786869 5.990625-2.98125 3.009375.9 3.965625 3.459375 2.953125 6.075-7.115625 18.225-16.171875 43.48125-17.325 48.0375-1.2375 5.034375 1.4625 4.8375 4.66875 3.178125 4.246875-2.221875 7.509375-7.70625 8.4375-9.95625 2.025-5.934375 4.21875-11.98125 5.90625-15.834375 1.4625-3.375 4.696875-3.15 5.934375-2.784375 3.009375.9 4.078125 3.290625 2.98125 5.878125-2.343711 5.6515805-4.408694 11.4147603-6.1875 17.26875-1.4625 4.95 1.40625 4.8375 4.640625 3.15 2.19375-1.125 4.584375-3.346875 6.58125-5.428125.140625-1.6875.421875-3.346875.84375-4.95 2.896875-10.6875 10.40625-19.603125 21.965625-19.659375 3.4875 0 6.80625 1.6875 9.309375 4.021875 4.5 4.1625 11.278125 2.053125 14.2875-6.046875.45-1.153125 2.08125-1.096875 2.19375.225zm-105.69375 27.309375c.759375-4.66875-2.025-7.790625-5.315625-7.228125-3.65625.675-6.975 4.471875-8.521875 8.60625-.28125.815625-3.234375 10.0125 1.8 10.74375 6.384375.73125 11.053125-6.046875 12.0375-12.121875zm81.534375-8.325c.759375-4.66875-2.053125-7.790625-5.34375-7.228125-3.65625.675-6.975 4.5-8.49375 8.634375-.28125.7875-3.2625 10.0125 1.8 10.74375 6.35625.703125 11.025-6.046875 12.0375-12.15z" fill="#f26161" transform="translate(120 25)"/></svg>

<?xml version="1.0" encoding="UTF-8"?>
<svg width="400px" height="140px" viewBox="0 0 400 140" version="1.1" xmlns="http://www.w3.org/2000/svg" xmlns:xlink="http://www.w3.org/1999/xlink">
    <title>Artboard</title>
    <g id="Artboard" stroke="none" stroke-width="1" fill="none" fill-rule="evenodd">
        <g id="folio" transform="translate(120.000000, 25.000000)" fill="#F26161" fill-rule="nonzero">
            <path d="M109.18125,25.453125 C107.71875,25.453125 103.134375,25.059375 104.45625,19.378125 C104.653125,18.534375 105.75,14.0625 110.475,14.11875 C114.834375,14.146875 116.60625,16.9875 115.875,20.278125 C115.453125,22.190625 114.103125,25.425 109.18125,25.453125 Z M163.06875,23.484375 C163.434375,27.61875 159.609375,43.509375 149.146875,40.809375 C148.21875,52.25625 137.75625,66.628125 123.271875,63.759375 C120.13258,63.2037492 117.424522,61.2323665 115.93125,58.415625 C112.78125,61.565625 109.06875,64.603125 105.721875,65.784375 C98.971875,68.175 94.3875,65.925 92.5875,62.128125 C90.2280091,64.7390809 87.2903343,66.7617423 84.009375,68.034375 C73.51875,71.746875 68.56875,64.434375 70.5375,57.065625 C70.959375,55.51875 71.94375,52.5375 73.2375,48.684375 C71.634375,49.44375 69.778125,49.66875 67.6125,49.134375 C66.7125,60.553125 56.25,74.925 41.765625,72.05625 C34.81875,70.70625 30.9375,63.9 33.80625,53.2125 C34.81875,49.55625 36.3375,46.096875 38.390625,43.14375 C34.875,43.425 29.41875,43.875 23.484375,44.521875 C18.84375,55.828125 13.921875,70.284375 9.28125,86.56875 C8.80530952,88.1512488 7.53275946,89.367205 5.93026022,89.770712 C4.32776099,90.174219 2.63111345,89.7059025 1.4625,88.5375 C0.295700196,87.3546646 -0.144782964,85.6357059 0.309375,84.0375 C2.1375,77.68125 7.003125,61.25625 12.965625,45.871875 L9.309375,46.434375 C5.79375,46.996875 4.3875,44.325 4.10625,42.721875 C3.825,40.809375 4.753125,38.053125 7.846875,37.575 C10.74375,37.125 13.753125,36.73125 16.790625,36.3375 C19.1596786,30.4887184 22.1087825,24.8920164 25.59375,19.63125 C31.078125,11.784375 36.95625,8.49375 43.565625,9.50625 C52.36875,10.828125 52.509375,21.88125 52.453125,22.78125 C52.3125,25.115625 51.665625,27.28125 47.896875,27.50625 C45.365625,27.61875 44.55,25.565625 43.93125,22.809375 C42.58125,17.071875 39.43125,18.759375 38.109375,19.546875 C35.26875,21.290625 31.640625,26.775 27.646875,35.128125 C35.38125,34.36875 41.315625,33.91875 41.79375,33.890625 C43.48125,33.778125 45.140625,34.621875 46.0125,36.084375 C49.0057564,34.4197722 52.3750235,33.54841 55.8,33.553125 C59.259375,33.553125 61.9875,35.04375 64.490625,37.378125 C68.709375,41.259375 75.459375,39.853125 78.778125,33.01875 C82.3019536,23.0304013 86.0151229,13.1098632 89.915625,3.2625 C90.8472675,0.874741787 93.4396593,-0.415368685 95.90625,0.28125 C98.915625,1.18125 99.871875,3.740625 98.859375,6.35625 C91.74375,24.58125 82.6875,49.8375 81.534375,54.39375 C80.296875,59.428125 82.996875,59.23125 86.203125,57.571875 C90.45,55.35 93.7125,49.865625 94.640625,47.615625 C96.665625,41.68125 98.859375,35.634375 100.546875,31.78125 C102.009375,28.40625 105.24375,28.63125 106.48125,28.996875 C109.490625,29.896875 110.559375,32.2875 109.4625,34.875 C107.118789,40.5265805 105.053806,46.2897603 103.275,52.14375 C101.8125,57.09375 104.68125,56.98125 107.915625,55.29375 C110.109375,54.16875 112.5,51.946875 114.496875,49.865625 C114.6375,48.178125 114.91875,46.51875 115.340625,44.915625 C118.2375,34.228125 125.746875,25.3125 137.30625,25.25625 C140.79375,25.25625 144.1125,26.94375 146.615625,29.278125 C151.115625,33.440625 157.89375,31.33125 160.903125,23.23125 C161.353125,22.078125 162.984375,22.134375 163.096875,23.45625 L163.06875,23.484375 Z M57.375,50.79375 C58.134375,46.125 55.35,43.003125 52.059375,43.565625 C48.403125,44.240625 45.084375,48.0375 43.5375,52.171875 C43.25625,52.9875 40.303125,62.184375 45.3375,62.915625 C51.721875,63.646875 56.390625,56.86875 57.375,50.79375 Z M138.909375,42.46875 C139.66875,37.8 136.85625,34.678125 133.565625,35.240625 C129.909375,35.915625 126.590625,39.740625 125.071875,43.875 C124.790625,44.6625 121.809375,53.8875 126.871875,54.61875 C133.228125,55.321875 137.896875,48.571875 138.909375,42.46875 Z" id="a"></path>
        </g>
    </g>
</svg>
